X: 131
T: Di Murgle Di
O: Romania
M: 4/4
L: 1/8
P:ABA
K: Em
Q:1/4 = 180
%%MIDI program 71 clarinet
%%MIDI bassprog 24 
%%MIDI chordprog 24
%%MIDI gchord fc
P:A
"Em"z2ee e2B2    |"Am"d2c2 c2A2 |\
"Bm"z2BB "Em"B2F2|A2G2 G2E2     |\
z2EE A2F2        |G2F2 G2F2     |\
E4- E4-          |E4 z4         :|
P:B
E2G2B2G2         |"Am"A4"Em"G2F2|E8-|E8|\
B2d2e2B2         |"Em"d4^c4     |B4-|B8|



